!!!id: EG040
!!!page: 104-106
!!!COM: Anonymous
!!!LYR: Anonymous
!!!PTL@@FR: Chansons Populaires du Canada
!!!OTL@@FR: P'tit Jean
!!!PUB: G. E. Desbarats
!!!YEM:
!!!PDT: 1865
!!!SMA:
!!!OMD:
!!!AGN-Laforte:
!!!AGN-type:
!!!AGN-rime:
**kern
*clefG2
*k[b-]
*g:
*M2/8
*
*
!LO:TX:a:i:t=Voix seule, puis la reprise en chœur.
=1
8g
16g
16g
=2
8b-
8dd
=3
8dd
8cc
=4
!LO:TX:a:t=LJ3
8a^
16f
16f
!!LO:PB:g=original
=5
!LO:TX:a:t=LJ3
8a^
16f
16f
=6
!LO:TX:a:t=LJ3
8a^
!LO:TX:a:t=LJ3
8cc/^
=7
!LO:TX:a:t=LJ3
8b-/^
8g
=8
8g
16g
16g
=9
8b-
8dd
!!LO:PB:g=original
=10
8dd
8b-
=11
8dd
16cc
16b-/
=12
8a
8b-/
=13
[4g
=14
8g]
8r
==15
8g
16g
16g
!!LO:PB:g=original
=16
8b-
8dd
=17
!LO:TX:a:t=rall molto
8ddL^
8b-J^
=18
4dd;^
=19
8cc
16a
16f
=20
8a
8b-/
=21
[4g
=22
8g]
8r
==||
*
*
==|
!!!RWG: Key labelled as 'g' but appears to be G Dorian, as score contains B-flat (however there is neither E-nat nor E-flat present for context, so could well just be in G Minor)
!!!RWG: Black line over mm. 4-7, as well as mm. 17-19b1 in original, unsure of significance
!!!RWG: Eighth notes marked with 'LJ3' in text contain a diatonic descending 3rd beamed 16th grace note motive within that beat
!!!RWG: Sixteenth note 'f' under B-flat in a lower voice in m.11
!!!RWG: All accents are above notes in original
!!!RWG: Fermata in m.18 under accent in original
*-
